Gruvbox-Plus-Dark/actions/16/meeting-participant-no-response.svg

<svg width="16" height="16" version="1.1" viewBox="0 0 16 16" xmlns="http://www.w3.org/2000/svg">
  <defs>
    <style type="text/css">.ColorScheme-Text { color:#ebdbb2; } .ColorScheme-Highlight { color:#458588; }</style>
  </defs>
  <path class="ColorScheme-Text" d="m13 2c-0.5523 0-1 0.4477-1 1s0.4477 1 1 1 1-0.4477 1-1-0.4477-1-1-1zm0 3c-0.5523 0-1 0.4477-1 1s0.4477 1 1 1 1-0.4477 1-1-0.4477-1-1-1zm0 3c-0.5523 0-1 0.4477-1 1s0.4477 1 1 1 1-0.4477 1-1-0.4477-1-1-1z" fill="currentColor" opacity=".3"/>
  <path class="ColorScheme-Text" d="m7 3c-1.657-4e-6 -3 1.343-3 3 1.25e-5 1.657 1.343 3 3 3 1.657 4e-6 3-1.343 3-3s-1.343-3-3-3zm0 6.75c-3.049 0.0036-5.619 2.253-6 5.25h12c-0.381-2.997-2.951-5.247-6-5.25z" fill="currentColor"/>
</svg>

<svg xmlns="http://www.w3.org/2000/svg" width="16" height="16" viewBox="0 0 16 16">
 <defs>
  <style id="current-color-scheme" type="text/css">
   .ColorScheme-Text { color:#ebdbb2; } .ColorScheme-Highlight { color:#458588; }
  </style>
 </defs>
 <path style="fill:currentColor" class="ColorScheme-Text" d="M 7 3 C 5.3431 3 4 4.3432 4 6 C 4 7.6568 5.3431 9 7 9 C 8.6569 9 10 7.6568 10 6 C 10 4.3432 8.6569 3 7 3 z M 7 10 C 0.9998 10.003 1 14 1 14 L 1 15 L 13 15 L 13 14 C 13 14 12.99977 9.997 7 10 z"/>
 <path style="fill:currentColor;opacity:0.3" class="ColorScheme-Text" d="M 13 2 A 1 1 0 0 0 12 3 A 1 1 0 0 0 13 4 A 1 1 0 0 0 14 3 A 1 1 0 0 0 13 2 z M 13 5 A 1 1 0 0 0 12 6 A 1 1 0 0 0 13 7 A 1 1 0 0 0 14 6 A 1 1 0 0 0 13 5 z M 13 8 A 1 1 0 0 0 12 9 A 1 1 0 0 0 13 10 A 1 1 0 0 0 14 9 A 1 1 0 0 0 13 8 z"/>
</svg>
